icons/solid/backspace.svg

<svg width="24" height="24" viewBox="0 0 24 24" fill="none" xmlns="http://www.w3.org/2000/svg">
<path fill-rule="evenodd" clip-rule="evenodd" d="M22 8C22 6.34315 20.6569 5 19 5H8.82843C8.03278 5 7.26972 5.31607 6.70711 5.87868L2.70711 9.87868C1.53554 11.0503 1.53554 12.9497 2.70711 14.1213L6.70711 18.1213C7.26972 18.6839 8.03278 19 8.82843 19H19C20.6569 19 22 17.6569 22 16V8ZM15.2929 9.29289C15.6834 8.90237 16.3166 8.90237 16.7071 9.29289C17.0976 9.68342 17.0976 10.3166 16.7071 10.7071L15.4142 12L16.7071 13.2929C17.0976 13.6834 17.0976 14.3166 16.7071 14.7071C16.3166 15.0976 15.6834 15.0976 15.2929 14.7071L14 13.4142L12.7071 14.7071C12.3166 15.0976 11.6834 15.0976 11.2929 14.7071C10.9024 14.3166 10.9024 13.6834 11.2929 13.2929L12.5858 12L11.2929 10.7071C10.9024 10.3166 10.9024 9.68342 11.2929 9.29289C11.6834 8.90237 12.3166 8.90237 12.7071 9.29289L14 10.5858L15.2929 9.29289Z" fill="currentColor"/>
</svg>

<svg width="24" height="24" fill="none" xmlns="http://www.w3.org/2000/svg"><path fill-rule="evenodd" clip-rule="evenodd" d="M22 8a3 3 0 00-3-3H8.828a3 3 0 00-2.12.879l-4 4a3 3 0 000 4.242l4 4a3 3 0 002.12.879H19a3 3 0 003-3V8zm-6.707 1.293a1 1 0 111.414 1.414L15.414 12l1.293 1.293a1 1 0 01-1.414 1.414L14 13.414l-1.293 1.293a1 1 0 01-1.414-1.414L12.586 12l-1.293-1.293a1 1 0 011.414-1.414L14 10.586l1.293-1.293z" fill="currentColor"/></svg>
